X: 9827
T: Denis O'Keeffe's
R: polka
M: 2/4
K: Dmajor
|:f2 gf|eA e2|A/B/c/d/ eA|fe cA|
fe/f/ gf|eA e2|A/B/c/d/ eA|d2 d2:|
|:af fe/d/|cg B2|A/B/c/d/ eA|fe cA|
af fe/d/|cg B2|A/B/c/d/ eA|d2 d2:|

